X: 999
T: Allistrum's March
R: jig
M: 6/8
K: Gmajor
c|:B2G AGF|G2g fdc|B2G AGF|Ggf dec|
B2G AGF|G2g fdc|BAB cBc|dgf d2 c:|
|:Aff agg|age fdc|Aff agg|agf d2c|
Aff agg|bag fde|~f3 ~g3|agf d2c:|

